X: 2972
T: Basket Of Yarn, The
R: reel
M: 4/4
K: Gmajor
|:DEGB AGED|~c3A BGEG|DEGB AGED|(3cBA BG AGEG|
DEGB AGED|c3e dBAB|(3cBA BG Agfg|1 ecAF G3E:|2 ecAF G3c||
|:Bd (3ddd Bdgf|edef aged|Bd (3ddd dedB|(3cBA BG AGEG|Bd (3ddd Bdgf|
edeg a2ga|1 (3bag ag edge|dBAB AGAc:|2 (3bag ag gedg|ecAF G3z||

